public/images/home/jquery.svg

<svg width="141" height="31" viewBox="0 0 141 31" fill="none" xmlns="http://www.w3.org/2000/svg">
<g clip-path="url(#clip0)">
<path fill-rule="evenodd" clip-rule="evenodd" d="M134.818 2.31055L140.713 2.34208C140.713 2.34208 129.753 16.7635 128.858 17.9388C128.568 18.3194 128.126 18.7299 127.902 19.2387C127.336 20.5177 126.755 23.3235 126.755 23.3235L121.362 23.3497C121.362 23.3497 122.201 20.425 122.166 18.8672C122.136 17.5064 121.421 16.1472 121.019 14.7824C120.614 13.4008 120.063 10.6974 120.063 10.6974H125.608L126.373 13.6683L134.818 2.31055Z" fill="#1A1918"/>
<path fill-rule="evenodd" clip-rule="evenodd" d="M123.655 5.35193C124.743 5.98877 125.411 9.50192 125.411 9.50192C125.411 9.50192 119.719 9.58343 116.621 9.58343H113.944L110.694 23.3234H105.723C105.723 23.3234 108.816 8.39153 109.547 5.68438C109.783 4.80783 111.168 4.95828 113.506 4.95828H117.24C119.652 4.95828 122.47 4.65924 123.655 5.35193ZM100.512 12.0436C100.512 12.0436 100.667 11.1618 99.9867 10.1404C99.4052 9.26968 98.8683 9.06712 97.3385 9.02062C93.0193 8.88887 93.1033 11.9971 93.1033 11.9971L100.512 12.0436ZM105.197 8.484C105.83 10.7013 104.623 15.9112 104.623 15.9112C104.623 15.9112 98.3229 15.8091 94.8719 15.9112C93.799 15.943 92.5146 15.7979 92.1951 16.2826C91.7458 16.962 92.3594 18.0077 92.8795 18.4494C93.4781 18.958 94.6441 19.016 95.0632 19.0675C97.8641 19.4131 103.726 19.1568 103.726 19.1568L102.711 23.5235C102.711 23.5235 94.4267 23.9271 90.2831 22.9666C89.465 22.7774 88.698 22.395 88.1798 21.8527C88.0384 21.7044 87.9156 21.5021 87.7819 21.3273C87.6751 21.1878 87.3636 20.7295 87.2238 20.3671C86.2774 17.9181 87.3347 13.2265 88.3711 10.7123C88.4913 10.421 88.6424 10.0514 88.8015 9.73736C89.0002 9.34585 89.1683 8.90383 89.3271 8.66973C89.4339 8.50832 89.5662 8.40436 89.6771 8.25203C89.8051 8.07191 89.954 7.8974 90.0918 7.7416C90.4744 7.31081 90.9083 7.00615 91.4304 6.62774C93.1567 5.37224 96.2809 4.39761 100.034 4.77068C101.447 4.91178 103.582 5.4019 104.623 6.8132C104.902 7.19001 105.04 7.93829 105.197 8.48426V8.484ZM82.3961 4.94118L87.2163 4.91365C87.2163 4.91365 84.5299 17.2888 83.1608 23.3234H77.6157C73.7404 23.3234 70.2892 23.7894 68.8208 21.0951C67.3964 18.4791 68.7558 14.177 69.3943 11.2542C69.8456 9.18577 70.7961 4.95802 70.7961 4.95802L75.7903 4.91365C75.7903 4.91365 74.3791 11.4958 73.7919 14.7823C73.5816 15.9595 73.1479 17.068 73.6009 17.9385C74.031 18.7669 74.6334 18.8262 76.4687 18.8671C77.0502 18.8805 78.9545 18.8671 78.9545 18.8671L82.3961 4.94118ZM59.8344 13.8537C60.3391 12.1123 61.0752 10.224 60.9816 8.65476C60.8804 6.97649 59.4312 5.4484 58.4961 5.12718C55.6798 4.16164 53.0431 5.51147 51.9952 6.61251C50.6396 8.0385 50.1806 9.70422 49.7007 11.9974C49.3435 13.6997 49.0506 15.4969 49.7007 16.8246C50.8515 19.1718 54.4406 18.6592 58.3048 18.6817C58.8783 17.1888 59.3525 15.5122 59.8344 13.8537ZM66.5265 6.98397C67.0769 10.8718 64.9645 15.1632 63.5093 18.8949C64.9931 19.0251 66.2934 18.8749 66.387 18.9823C66.4844 19.1215 65.3924 23.4367 65.0118 23.4479C63.8343 23.4776 59.9321 23.5091 58.3048 23.5091C52.995 23.5091 48.0278 23.845 45.4946 21.2811C44.4659 20.2394 43.7546 18.4529 43.5823 17.1961C43.2955 15.0979 43.6549 12.7879 44.1561 10.8833C44.6093 9.16359 45.1902 7.5409 46.0681 6.05531C48.2994 2.27331 52.1807 -0.534055 58.6871 0.114004C59.9491 0.240142 61.7615 0.776762 62.8937 1.4136C62.9718 1.45823 63.2457 1.66988 63.3084 1.70703C64.8382 2.65226 66.2321 4.90804 66.5265 6.98397ZM43.0336 4.96363C42.7124 6.38402 42.3913 7.99414 42.0528 9.39769H36.6992C37.1139 7.84182 37.4314 6.29502 37.8464 4.94145C39.5595 4.94145 41.1523 4.96363 43.0338 4.96363H43.0336ZM36.5079 10.6976H41.6705C40.9955 14.3256 39.6589 20.1779 38.6112 24.2518C37.9554 26.8012 37.5176 28.6615 35.7431 30.0076C35.5844 30.1284 35.4927 30.0709 35.3606 30.1933C35.0337 30.4961 33.5212 30.8473 32.6841 30.936C31.3227 31.0792 29.7836 30.9547 28.1104 30.9213C28.5482 29.3673 29.0436 27.5011 29.4338 26.1083C33.5121 26.5877 33.6153 22.8442 34.4049 19.2386C34.8617 17.1552 36.2462 11.5329 36.5079 10.6976Z" fill="#1A1918"/>
<path fill-rule="evenodd" clip-rule="evenodd" d="M24.4625 20.1673L24.3519 20.4458C22.4668 24.0108 19.1263 26.1979 14.3616 26.2944C12.1342 26.339 10.0119 25.7839 8.62544 25.1805C5.63354 23.875 3.1169 21.4541 1.74258 18.8675C-0.228901 15.1595 -0.58445 10.0015 3.51483 6.14893C3.57812 6.14893 3.01755 6.98432 3.08085 6.98432L2.96802 7.34082C0.0140945 16.3217 9.11501 24.0183 17.9619 23.138C20.0881 22.9263 22.7993 21.7956 24.4625 20.1673Z" fill="#21609B"/>
<path fill-rule="evenodd" clip-rule="evenodd" d="M19.1093 16.4535C21.3351 16.4682 23.6599 15.458 25.0367 14.0398C23.8322 17.0088 20.3447 18.9172 15.668 18.3103C11.752 17.8015 8.02178 13.9748 7.63762 10.1405C7.35664 7.34992 8.35807 5.68447 10.0084 3.66412C9.4349 4.7208 9.22053 5.53562 9.16714 6.0554C8.54025 12.0918 14.1327 16.4217 19.1093 16.4535Z" fill="#21609B"/>
<path fill-rule="evenodd" clip-rule="evenodd" d="M24.8123 8.9559C24.4664 9.72663 22.4743 11.182 21.5945 11.364C18.1108 12.0848 15.8798 10.4805 14.7111 8.65499C14.5374 8.3824 14.2163 7.63787 14.1588 7.4484C13.7055 5.95184 13.9138 3.68831 15.2659 2.51672C14.8586 3.63085 14.7991 4.92484 15.0135 5.76611C15.1434 6.27467 15.5391 7.16271 15.9351 7.72125C16.6556 8.73864 17.1127 8.98583 18.0381 9.5262C18.4551 9.76939 18.9023 9.96447 19.0954 10.0179C19.973 10.2689 21.8259 10.9297 24.8126 8.9559" fill="#21609B"/>
</g>
<defs>
<clipPath id="clip0">
<rect width="141" height="31" fill="white"/>
</clipPath>
</defs>
</svg>

<svg xmlns="http://www.w3.org/2000/svg" width="141" height="31" fill="none" xmlns:v="https://vecta.io/nano"><g clip-path="url(#A)" fill-rule="evenodd"><g fill="#1a1918"><path d="M134.818 2.311l5.895.032-11.855 15.597c-.29.381-.732.791-.956 1.3-.566 1.279-1.147 4.085-1.147 4.085l-5.393.026s.839-2.925.804-4.482c-.03-1.361-.745-2.72-1.147-4.085-.405-1.382-.956-4.085-.956-4.085h5.545l.765 2.971 8.445-11.358zm-11.163 3.041c1.088.637 1.756 4.15 1.756 4.15l-8.79.082h-2.677l-3.25 13.74h-4.971l3.824-17.639c.236-.877 1.621-.726 3.959-.726h3.734c2.412 0 5.23-.299 6.415.394zm-23.143 6.692s.155-.882-.525-1.903c-.582-.871-1.118-1.073-2.648-1.12-4.319-.132-4.235 2.976-4.235 2.976l7.409.046zm4.685-3.56c.633 2.217-.574 7.427-.574 7.427s-6.3-.102-9.751 0c-1.073.032-2.357-.113-2.677.371-.449.679.164 1.725.684 2.167.599.509 1.765.567 2.184.618 2.801.346 8.663.089 8.663.089l-1.015 4.367s-8.284.404-12.428-.557c-.818-.189-1.585-.572-2.103-1.114-.141-.148-.264-.351-.398-.525-.107-.14-.418-.598-.558-.96-.946-2.449.111-7.141 1.147-9.655l.43-.975.526-1.068c.107-.161.239-.265.35-.418.128-.18.277-.355.415-.51.383-.431.816-.735 1.339-1.114 1.726-1.256 4.85-2.23 8.604-1.857 1.413.141 3.548.631 4.589 2.043.279.377.417 1.125.574 1.671h0zM82.396 4.941l4.82-.028-4.056 18.41h-5.545c-3.875 0-7.327.466-8.795-2.228-1.424-2.616-.065-6.918.573-9.841l1.402-6.296 4.994-.044-1.998 9.869c-.21 1.177-.644 2.286-.191 3.156.43.828 1.032.888 2.868.929h2.486l3.442-13.926zm-22.562 8.913c.505-1.741 1.241-3.63 1.147-5.199-.101-1.678-1.55-3.206-2.486-3.528-2.816-.966-5.453.384-6.501 1.485-1.356 1.426-1.815 3.092-2.294 5.385-.357 1.702-.65 3.499 0 4.827 1.151 2.347 4.74 1.835 8.604 1.857.574-1.493 1.048-3.169 1.53-4.828zm6.692-6.87c.55 3.888-1.562 8.179-3.017 11.911 1.484.13 2.784-.02 2.878.087.097.139-.995 4.454-1.375 4.466-1.177.03-5.08.061-6.707.061-5.31 0-10.277.336-12.81-2.228-1.029-1.042-1.74-2.828-1.912-4.085-.287-2.098.073-4.408.574-6.313.453-1.72 1.034-3.342 1.912-4.828 2.23-3.782 6.112-6.589 12.618-5.941 1.262.126 3.074.663 4.207 1.3.078.045.352.256.415.293 1.53.945 2.924 3.201 3.218 5.277zm-23.493-2.02l-.981 4.434h-5.354c.415-1.556.732-3.103 1.147-4.456l5.187.022h0zm-6.526 5.734h5.163c-.675 3.628-2.012 9.48-3.059 13.554-.656 2.549-1.094 4.41-2.868 5.756-.159.121-.25.063-.383.186-.327.303-1.839.654-2.676.743-1.361.143-2.901.019-4.574-.015l1.323-4.813c4.078.479 4.181-3.264 4.971-6.87.457-2.083 1.841-7.706 2.103-8.541z"/></g><g fill="#21609b"><path d="M24.463 20.167l-.111.278c-1.885 3.565-5.226 5.752-9.99 5.849a14.33 14.33 0 0 1-5.736-1.114c-2.992-1.305-5.509-3.726-6.883-6.313C-.229 15.16-.584 10.002 3.515 6.149c.063 0-.497.835-.434.835l-.113.356C.014 16.322 9.115 24.018 17.962 23.138c2.126-.212 4.837-1.342 6.501-2.971zm-5.354-3.713c2.226.015 4.551-.995 5.927-2.414-1.204 2.969-4.692 4.877-9.369 4.271-3.916-.509-7.646-4.336-8.03-8.17-.281-2.791.72-4.456 2.371-6.476-.573 1.057-.788 1.871-.841 2.391-.627 6.036 4.966 10.366 9.942 10.398zm5.703-7.498c-.346.771-2.338 2.226-3.218 2.408-3.484.721-5.715-.884-6.883-2.709-.174-.273-.495-1.017-.552-1.207-.453-1.497-.245-3.76 1.107-4.932-.407 1.114-.467 2.408-.252 3.249a7.12 7.12 0 0 0 .922 1.955c.72 1.017 1.178 1.265 2.103 1.805.417.243.864.438 1.057.492.878.251 2.73.912 5.717-1.062"/></g></g><defs><clipPath id="A"><path fill="#fff" d="M0 0h141v31H0z"/></clipPath></defs></svg>
